svg/free/move.svg

<svg version="1.1" xmlns="http://www.w3.org/2000/svg" width="24" height="24" viewBox="0 0 24 24">
<title>move</title>
<path d="M18.929 7.739l-1.061 1.061 2.432 2.432h-7.531v-7.531l2.432 2.432 1.061-1.061-4.243-4.243-4.243 4.243 1.061 1.061 2.432-2.432v7.531h-7.569l2.432-2.432-1.061-1.061-4.243 4.243 4.243 4.243 1.061-1.061-2.432-2.432h7.569v7.569l-2.432-2.432-1.061 1.061 4.243 4.243 4.243-4.243-1.061-1.061-2.432 2.432v-7.569h7.531l-2.432 2.432 1.061 1.061 4.243-4.243-4.243-4.243z"></path>
</svg>

<svg xmlns="http://www.w3.org/2000/svg" width="24" height="24" viewBox="0 0 24 24"><path d="M18.929 7.739L17.868 8.8l2.432 2.432h-7.531V3.701l2.432 2.432 1.061-1.061L12.019.829 7.776 5.072l1.061 1.061 2.432-2.432v7.531H3.7L6.132 8.8 5.071 7.739.828 11.982l4.243 4.243 1.061-1.061L3.7 12.732h7.569v7.569l-2.432-2.432-1.061 1.061 4.243 4.243 4.243-4.243-1.061-1.061-2.432 2.432v-7.569H20.3l-2.432 2.432 1.061 1.061 4.243-4.243-4.243-4.243z"/></svg>
